X:118
T:Sellenger's Round
T:The Beginning of the World
M:6/8
L:1/8
K:G
"G" G3 G>AB | "C" c3 c>de |"G" d2 c "G7" B>AB | "C" c6 |
"G7" G3 G>AB | "C" c3 "Am" c>de | "Dm" d2 c "G7" B>AB | "C" c3-c2 ||
|: d | "C" e3 e>dc | "G" d3 z2 d | B>cd d>cB | "D" A3 d2 B |
[1 c>dc B2 G | "C" A>Bc "D" B2 G | A2 G F>EF | "G" G3-G>AB :|
[2 c>dc B2 G | "C" A>Bc "D" B2 G | A>BG F>EF | "G" G6 ||
%
%
